media/theme/theme-5/rundown_fitur.svg

<svg fill="none" height="100" viewBox="0 0 117 100" width="117" xmlns="http://www.w3.org/2000/svg"><path clip-rule="evenodd" d="m42.4679 14.032c19.2469-.3611 32.5214 13.1234 37.0102 28.2416 2.5826 8.6978 1.1428 20.3499-2.0466 26.9982-.7608 1.5856-2.1845 6.0066-3.9227 6.2167-2.2534-.3629-2.5754-.2926-3.7522-.7105-1.5104-.5361-5.7242-2.2638-6.3105-3.5524 1.3132-.6529 1.9692-2.6277 2.7288-3.9076 3.3108-5.5789 5.2985-14.4228 2.7289-22.5578-2.8708-9.0879-8.8296-14.6961-17.3965-17.9396-2.0732-.7849-7.5869-2.2065-10.9154-1.4209-2.036.4804-4.2468.6847-6.14 1.4209-7.9308 3.0833-14.0356 9.3972-16.7143 17.9396-4.9182 15.6839 4.7708 29.472 14.6677 33.9254 2.5839 1.1627 5.5089 2.1315 9.0393 2.1315 2.1048 3.3245 7.562 8.2771 11.086 10.1243-.1741.1421-.0467.0631-.3411.1776-4.5932.9389-1.6155.3212-3.5816.7105-5.9854 1.1854-13.2222-.0025-17.7376-1.7762-12.3217-4.8401-18.8938-12.5245-23.36591-25.5773-1.4289-4.1706-2.64001-11.6238-1.36443-17.2291 3.45184-15.1687 10.96664-25.5485 23.87754-30.7282 2.5445-1.0208 5.4066-1.4542 8.1866-2.1315 1.3121-.3197 2.1466-.1206 4.2638-.3552zm31.8936 0c16.8095-.3503 28.6055 9.806 34.4515 20.9591.934 1.7807 1.282 3.5169 2.047 5.5063 2.349 6.1067 2.876 17.0822.682 23.9786-3.936 12.377-11.8048 20.7786-23.0245 25.5773-2.5881 1.1069-5.5587 1.7707-8.5277 2.1315-5.2322.6358-12.6154-.5253-15.8615-1.7762-13.3218-5.1333-21.0145-13.3254-25.242-27.8864-2.5042-8.6254-.302-19.6684 2.7289-25.7549.8156-1.638 2.3695-4.9618 3.2405-5.5062 1.1076.2324 3.4452.6395 4.7755 1.0657 1.4712.472 3.6785 1.7478 5.4577 2.6643-.1076.3116-.0329.1725-.1705.3553-.6747 1.6447-2.2401 3.0195-3.07 4.6181-1.5643 3.0146-2.2472 6.4801-3.07 10.302v2.8419c0 4.4696.8223 7.6275 2.0467 10.6572 3.4322 8.4923 8.9541 13.5641 17.9081 16.341 2.9648.9195 7.5914 1.6185 11.2566.7105 2.3073-.5716 4.5963-1.203 6.6516-2.1315 9.2029-4.1563 19.1246-17.7719 14.6676-33.0373-3.1226-10.6939-12.2786-20.2374-25.583-20.2486-1.6032-2.5006-4.9843-5.7004-7.3339-7.4601-1.0091-.7557-2.3558-1.2621-3.0699-2.309l.1705-.1776c2.1429-.45 3.4254-.6913 4.9461-1.0658 1.2406-.3055 1.6312-.1515 3.9227-.3552z" fill="#000" fill-rule="evenodd"/></svg>

<svg width="117" height="100" viewBox="0 0 117 100" fill="none" xmlns="http://www.w3.org/2000/svg">
<path fill-rule="evenodd" clip-rule="evenodd" d="M42.4679 14.032C61.7148 13.6709 74.9893 27.1554 79.4781 42.2736C82.0607 50.9714 80.6209 62.6235 77.4315 69.2718C76.6707 70.8574 75.247 75.2784 73.5088 75.4885C71.2554 75.1256 70.9334 75.1959 69.7566 74.778C68.2462 74.2419 64.0324 72.5142 63.4461 71.2256C64.7593 70.5727 65.4153 68.5979 66.1749 67.318C69.4857 61.7391 71.4734 52.8952 68.9038 44.7602C66.033 35.6723 60.0742 30.0641 51.5073 26.8206C49.4341 26.0357 43.9204 24.6141 40.5919 25.3997C38.5559 25.8801 36.3451 26.0844 34.4519 26.8206C26.5211 29.9039 20.4163 36.2178 17.7376 44.7602C12.8194 60.4441 22.5084 74.2322 32.4053 78.6856C34.9892 79.8483 37.9142 80.8171 41.4446 80.8171C43.5494 84.1416 49.0066 89.0942 52.5306 90.9414C52.3565 91.0835 52.4839 91.0045 52.1895 91.119C47.5963 92.0579 50.574 91.4402 48.6079 91.8295C42.6225 93.0149 35.3857 91.827 30.8703 90.0533C18.5486 85.2132 11.9765 77.5288 7.50439 64.476C6.07549 60.3054 4.86438 52.8522 6.13996 47.2469C9.5918 32.0782 17.1066 21.6984 30.0175 16.5187C32.562 15.4979 35.4241 15.0645 38.2041 14.3872C39.5162 14.0675 40.3507 14.2666 42.4679 14.032ZM74.3615 14.032C91.171 13.6817 102.967 23.838 108.813 34.9911C109.747 36.7718 110.095 38.508 110.86 40.4974C113.209 46.6041 113.736 57.5796 111.542 64.476C107.606 76.853 99.7372 85.2546 88.5175 90.0533C85.9294 91.1602 82.9588 91.824 79.9898 92.1848C74.7576 92.8206 67.3744 91.6595 64.1283 90.4086C50.8065 85.2753 43.1138 77.0832 38.8863 62.5222C36.3821 53.8968 38.5843 42.8538 41.6152 36.7673C42.4308 35.1293 43.9847 31.8055 44.8557 31.2611C45.9633 31.4935 48.3009 31.9006 49.6312 32.3268C51.1024 32.7988 53.3097 34.0746 55.0889 34.9911C54.9813 35.3027 55.056 35.1636 54.9184 35.3464C54.2437 36.9911 52.6783 38.3659 51.8484 39.9645C50.2841 42.9791 49.6012 46.4446 48.7784 50.2665V53.1084C48.7784 57.578 49.6007 60.7359 50.8251 63.7656C54.2573 72.2579 59.7792 77.3297 68.7332 80.1066C71.698 81.0261 76.3246 81.7251 79.9898 80.8171C82.2971 80.2455 84.5861 79.6141 86.6414 78.6856C95.8443 74.5293 105.766 60.9137 101.309 45.6483C98.1864 34.9544 89.0304 25.4109 75.726 25.3997C74.1228 22.8991 70.7417 19.6993 68.3921 17.9396C67.383 17.1839 66.0363 16.6775 65.3222 15.6306L65.4927 15.453C67.6356 15.003 68.9181 14.7617 70.4388 14.3872C71.6794 14.0817 72.07 14.2357 74.3615 14.032Z" fill="black"/>
</svg>
